src/assets/duotone/WalletCheck.svg

<svg width="24" height="24" viewBox="0 0 24 24"  xmlns="http://www.w3.org/2000/svg">
<path d="M5 15C2.79 15 1 16.79 1 19C1 19.75 1.21 20.46 1.58 21.06C2.27 22.22 3.54 23 5 23C6.46 23 7.73 22.22 8.42 21.06C8.79 20.46 9 19.75 9 19C9 16.79 7.21 15 5 15ZM6.97 18.67L4.84 20.64C4.7 20.77 4.51 20.84 4.33 20.84C4.14 20.84 3.95 20.77 3.8 20.62L2.81 19.63C2.52 19.34 2.52 18.86 2.81 18.57C3.1 18.28 3.58 18.28 3.87 18.57L4.35 19.05L5.95 17.57C6.25 17.29 6.73 17.31 7.01 17.61C7.29 17.91 7.27 18.39 6.97 18.67Z" />
<path d="M17.7499 7.04997C17.5099 7.00997 17.2599 6.99998 16.9999 6.99998H6.99994C6.71994 6.99998 6.44994 7.01998 6.18994 7.05998C6.32994 6.77998 6.52994 6.52001 6.76994 6.28001L10.0199 3.02C11.3899 1.66 13.6099 1.66 14.9799 3.02L16.7299 4.78996C17.3699 5.41996 17.7099 6.21997 17.7499 7.04997Z" />
<path opacity="0.4" d="M22 12V17C22 20 20 22 17 22H7.63C7.94 21.74 8.21 21.42 8.42 21.06C8.79 20.46 9 19.75 9 19C9 16.79 7.21 15 5 15C3.8 15 2.73 15.53 2 16.36V12C2 9.28 3.64 7.38 6.19 7.06C6.45 7.02 6.72 7 7 7H17C17.26 7 17.51 7.00999 17.75 7.04999C20.33 7.34999 22 9.26 22 12Z" />
<path d="M22 12.5H19C17.9 12.5 17 13.4 17 14.5C17 15.6 17.9 16.5 19 16.5H22" />
</svg>

<?xml version="1.0" encoding="UTF-8"?>
<svg width="24" height="24" viewBox="0 0 24 24" xmlns="http://www.w3.org/2000/svg">
 <path d="m5 15c-2.21 0-4 1.79-4 4 0 0.75 0.21 1.46 0.58 2.06 0.69 1.16 1.96 1.94 3.42 1.94s2.73-0.78 3.42-1.94c0.37-0.6 0.58-1.31 0.58-2.06 0-2.21-1.79-4-4-4zm1.97 3.67-2.13 1.97c-0.14 0.13-0.33 0.2-0.51 0.2-0.19 0-0.38-0.07-0.53-0.22l-0.99-0.99c-0.29-0.29-0.29-0.77 0-1.06s0.77-0.29 1.06 0l0.48 0.48 1.6-1.48c0.3-0.28 0.78-0.26 1.06 0.04s0.26 0.78-0.04 1.06z"/>
 <path d="m17.75 7.05c-0.24-0.04-0.49-0.04999-0.75-0.04999h-10c-0.28 0-0.55 0.02-0.81 0.06 0.14-0.28 0.34-0.53997 0.58-0.77997l3.25-3.26c1.37-1.36 3.59-1.36 4.96 0l1.75 1.77c0.64 0.63 0.98 1.43 1.02 2.26z"/>
 <path d="m22 12v5c0 3-2 5-5 5h-9.37c0.31-0.26 0.58-0.58 0.79-0.94 0.37-0.6 0.58-1.31 0.58-2.06 0-2.21-1.79-4-4-4-1.2 0-2.27 0.53-3 1.36v-4.36c0-2.72 1.64-4.62 4.19-4.94 0.26-0.04 0.53-0.06 0.81-0.06h10c0.26 0 0.51 0.00999 0.75 0.04999 2.58 0.3 4.25 2.21 4.25 4.95z" opacity=".4"/>
 <path d="m22 12.5h-3c-1.1 0-2 0.9-2 2s0.9 2 2 2h3"/>
</svg>
